X:15468
T:Singue. HSJJ.057
M:6/8
L:1/8
S:HSJ Jackson,Wyresdale,Lancs.1823
R:March
O:England
A:Lancashire
H:1823
Z:vmp.Chris Partington.
K:G
G2GG2G|G3AGA|B2BB2B|B3cBc|d3Bcd|c3ABc|!Bdc BAG|FAG FED|G2GG2G|G3AGA|B2BB
2B|B3cBc|d3Bcd|!c3ABc|Bed cBA|A3A3|
|B6|dBc dcB|A6|cAB cBA|!B2dB2d|c2ec2e|def g2f|e6|ggg eee|fff ddd|!
BBB ccc|d3def|ggg eee|fff ddd|BBB ccc|"Da Capo"d3cBA|]
